X:5074
T:The Embers Of The Day
M:6/8
R:Jig
L:1/8
Q:180
C:Aidan Crossey
K:D
|:FAD FAD|Bcd dcd|FAD FAD|BA^G A3|
FAD FAD|Bcd dcd|fed BA^G|1 A3 ABG:||
2 A3 ABc||
|:d2f fgf|c2e efe|d2f fgf|c2e ^d2e|
d2f fgf|c2e efe|fed BA^G|1 A3 ABc:||
2 A3 ABG||
